src/svg/sort-alphabetically.svg

<svg version="1.2" baseProfile="tiny" xmlns="http://www.w3.org/2000/svg" width="24" height="24" viewBox="0 0 24 24"><path d="M10.895 16.553l-4-8c-.339-.678-1.45-.678-1.789 0l-4 8c-.247.494-.047 1.095.447 1.342.495.248 1.095.046 1.342-.447l.723-1.448h4.764l.724 1.447c.175.351.528.553.895.553.15 0 .303-.034.446-.105.494-.248.695-.848.448-1.342zm-6.277-2.553l1.382-2.764 1.382 2.764h-2.764zM22 18h-6c-.379 0-.725-.214-.895-.553s-.132-.744.095-1.047l4.8-6.4h-4c-.552 0-1-.448-1-1s.448-1 1-1h6c.379 0 .725.214.895.553s.132.744-.095 1.047l-4.8 6.4h4c.552 0 1 .448 1 1s-.448 1-1 1zM14 14h-2c-.552 0-1-.448-1-1s.448-1 1-1h2c.552 0 1 .448 1 1s-.448 1-1 1z"/></svg>

<?xml version="1.0" encoding="iso-8859-1"?>
<!-- Generator: Adobe Illustrator 16.2.1, SVG Export Plug-In . SVG Version: 6.00 Build 0)  -->
<svg version="1.2" baseProfile="tiny" id="Layer_1" xmlns="http://www.w3.org/2000/svg" xmlns:xlink="http://www.w3.org/1999/xlink"
	 x="0px" y="0px" width="24px" height="24px" viewBox="0 0 24 24" xml:space="preserve">
<path d="M10.895,16.553l-4-8c-0.339-0.678-1.45-0.678-1.789,0l-4,8c-0.247,0.494-0.047,1.095,0.447,1.342
	c0.495,0.248,1.095,0.046,1.342-0.447L3.618,16h4.764l0.724,1.447C9.281,17.798,9.634,18,10.001,18c0.15,0,0.303-0.034,0.446-0.105
	C10.941,17.647,11.142,17.047,10.895,16.553z M4.618,14L6,11.236L7.382,14H4.618z"/>
<g>
	<path d="M22,18h-6c-0.379,0-0.725-0.214-0.895-0.553S14.973,16.703,15.2,16.4L20,10h-4c-0.552,0-1-0.448-1-1s0.448-1,1-1h6
		c0.379,0,0.725,0.214,0.895,0.553S23.027,9.297,22.8,9.6L18,16h4c0.552,0,1,0.448,1,1S22.552,18,22,18z"/>
</g>
<g>
	<path d="M14,14h-2c-0.552,0-1-0.448-1-1s0.448-1,1-1h2c0.552,0,1,0.448,1,1S14.552,14,14,14z"/>
</g>
</svg>
